!!!OTL: Der Wolf und die Gans (48b), S.155
!!!id: T0182
**kern
*clefG2
*k[]
*G:
{8d
=1
4g
8g
8b
8g
8g
=2
8dd
8dd
8dd
4dd}
=3
{8dd
=4
8dd
8dd
8dd
8ee
8dd
8cc
=5
8cc
8b
8b
4b}
=6
{8dd
=7
8ee
8dd
8dd
8dd
8dd
8ee
=8
4ee
8dd
4dd}
=9
{8dd
=10
8dd
8dd
8dd
8ee
8dd
16dd
16dd
=11
4dd
8cc
4cc}
=12
{8cc
=13
4dd
8dd
8dd
8cc
8b
=14
4.a
4g}
==
*-
!!!minrhy: 16
!!!meters: 6/8 ]  ZZ[5
!!!cut: Der Wolf und die Gans (48b), S.155
!!!reg: Luxemburg
!!!trd: Singendes Volk, Esch-Alzette 1937 posth.
!!!rhy1: X_  X__X_X_X_X_  X_X_X_X__   (x2)
!!!rhy2: X_  X_X_X_X_X_X_  X_X_X_X__
!!!key: T0182  16  G 6/8 ]  ZZ[5
!!!mod: SECHSTONSKALA DUR ?]  AMBITUS[9
!!!kad: 53541
!!!akz: 1355_5643_6565_5654_5521_
!!!fot: 'a__b__c__d__e__
!!!for: 'a__b__c__d__e__
!!!fok: '/__\__-__\__\__
!! PHRAS[AUFTAKTIG]
!!!fkt: Liebeslieder
!!!bem: StraPen, fff Witry, 24.1.1933
!! THILL, Mathias:
!! PR[47] 2K[0] 2G[12] 3K[6] 3G[2] 4A[8] 4Ü[0] 5A[0] 6K[0] 6G[0]
!! 7K[0] 7G[0] 8A[0] MEHR[0] SI[29] ABS[49] SR[12] SP[16]
!! ST[13] 2k[4] 2g[10] 3k[2] 3g[2] 4d[0] 4ü[0] 5d[6] 6k[0] 6g[0]
!! 7k[0] 7g[0] 8d[0] mehr[0] si[24] dm[+5] sr[14] sp[10]
!! 1F[31] 2F[64] 3F[5] 4F[0] LF[0] 2P[0] 3P[0] 4P[0] TRI[0] DF[3] AB[58]
!! TF[0] U3K[0] U3[0] U4[0] U4Ü[0] U5[2] U6K[0] U6[0] U7K[0] U7[0]
!! N1[26] N2K[0] N2[26] N3K[0] N3[26] N4[4] N4Ü[0] N5[16] N6K[0] N6[0]
!!!n7k: 0] N7[0] O1[0] O2K[0] O2[0] O3K[0] O3[0] HÖ[0
